X:2007
T:The Drummer
P:The Drummer
C:Traditional?
R:Reel (8x48) ABABAB
B:RSCDS 20-7
Z:Anselm Lingnau <anselm@strathspey.org>
M:C
L:1/8
K:Gm
B/A/|"Gm"GABG D/D/DDE|"Fm"F2FG ABcA|"Gm"GABG D/D/DDe|"D7"dcBA "Gm"G/G/G G B/A/|
     "Gm"GABG D/D/DDE|"Fm"F2FG ABcA|"Gm"GABG D/D/DDe|"D7"dcBA "Gm"G/G/G G||
F|"Bb"B/B/B Bd "F7"c/c/c ce|"Bb"B/B/B Bd "F7"cA FA|\
  "Bb"B/B/B Bd "F7"c/c/c ce|"D7"dcBA "Gm"G/G/G GF|
  "Bb"B/B/B Bd "F7"c/c/c ce|"Bb"B/B/B Bd "F7"cA FA|\
  "Bb"B/B/B Bd "F7"c/c/c ce|"D7"dcBA "Gm"G/G/G G|]
